Cawnonical Mono-Glyph Icon Suite/packaged/Cawnonical Mono-Glyph Icon Suite Teal/apps/glyphs/krusader_user.svg

<svg height="48" viewBox="0 -960 960 960" width="48" xmlns="http://www.w3.org/2000/svg"><path fill="rgb(50, 190, 200)" d="m189-95c-26.533 0-48.833-9.033-66.9-27.1s-27.1-40.367-27.1-66.9v-582c0-26.807 9.033-49.343 27.1-67.61 18.067-18.26 40.367-27.39 66.9-27.39h582c26.807 0 49.343 9.13 67.61 27.39 18.26 18.267 27.39 40.803 27.39 67.61v582c0 26.533-9.13 48.833-27.39 66.9-18.267 18.067-40.803 27.1-67.61 27.1zm450-94h132v-582h-132zm-94 0v-582h-356v582zm94 0h132z"/><path d="m290.407-377.94c-7.692 0-14.244-2.78-19.656-8.27-5.406-5.5-8.112-11.99-8.112-19.5v-148.29c0-7.56 2.706-14.18 8.112-19.73 5.412-5.56 11.964-8.33 19.656-8.33h65.58c3.681 0 7.261.76 10.735 2.36 3.48 1.53 6.505 3.66 9.08 6.2l12.809 12.71h59.928c7.575 0 14.144 2.71 19.71 8.27 5.571 5.49 8.354 11.99 8.354 19.49v127.32c0 7.51-2.783 14-8.354 19.5-5.566 5.49-12.135 8.27-19.71 8.27z"/></svg>

<?xml version="1.0" encoding="utf-8"?>
<svg height="48" viewBox="0 -960 960 960" width="48" xmlns="http://www.w3.org/2000/svg">
  <path fill="rgb(50, 190, 200)" d="M 290.407 -377.94 C 282.715 -377.94 276.163 -380.72 270.751 -386.21 C 265.345 -391.71 262.639 -398.2 262.639 -405.71 L 262.639 -554 C 262.639 -561.56 265.345 -568.18 270.751 -573.73 C 276.163 -579.29 282.715 -582.06 290.407 -582.06 L 355.987 -582.06 C 359.668 -582.06 363.248 -581.3 366.722 -579.7 C 370.202 -578.17 373.227 -576.04 375.802 -573.5 L 388.611 -560.79 L 448.539 -560.79 C 456.114 -560.79 462.683 -558.08 468.249 -552.52 C 473.82 -547.03 476.603 -540.53 476.603 -533.03 L 476.603 -405.71 C 476.603 -398.2 473.82 -391.71 468.249 -386.21 C 462.683 -380.72 456.114 -377.94 448.539 -377.94 Z M 189 -95 C 162.467 -95 140.167 -104.033 122.1 -122.1 C 104.033 -140.167 95 -162.467 95 -189 L 95 -771 C 95 -797.807 104.033 -820.343 122.1 -838.61 C 140.167 -856.87 162.467 -866 189 -866 L 771 -866 C 797.807 -866 820.343 -856.87 838.61 -838.61 C 856.87 -820.343 866 -797.807 866 -771 L 866 -189 C 866 -162.467 856.87 -140.167 838.61 -122.1 C 820.343 -104.033 797.807 -95 771 -95 Z M 639 -189 L 771 -189 L 771 -771 L 639 -771 Z M 545 -189 L 545 -771 L 189 -771 L 189 -189 Z"/>
</svg>
